images/6603721.svg

<?xml version="1.0" encoding="UTF-8"?>
<svg xmlns="http://www.w3.org/2000/svg" xmlns:xlink="http://www.w3.org/1999/xlink" width="300pt" height="300pt" viewBox="0 0 300 300" version="1.1">
<defs>
<g>
<symbol overflow="visible" id="glyph0-0">
<path style="stroke:none;" d="M 0.59375 2.125 L 0.59375 -8.46875 L 6.59375 -8.46875 L 6.59375 2.125 Z M 1.265625 1.453125 L 5.9375 1.453125 L 5.9375 -7.78125 L 1.265625 -7.78125 Z M 1.265625 1.453125 "/>
</symbol>
<symbol overflow="visible" id="glyph0-1">
<path style="stroke:none;" d="M 4.734375 -7.953125 C 3.867188 -7.953125 3.179688 -7.628906 2.671875 -6.984375 C 2.171875 -6.347656 1.921875 -5.472656 1.921875 -4.359375 C 1.921875 -3.265625 2.171875 -2.394531 2.671875 -1.75 C 3.179688 -1.113281 3.867188 -0.796875 4.734375 -0.796875 C 5.585938 -0.796875 6.265625 -1.113281 6.765625 -1.75 C 7.273438 -2.394531 7.53125 -3.265625 7.53125 -4.359375 C 7.53125 -5.472656 7.273438 -6.347656 6.765625 -6.984375 C 6.265625 -7.628906 5.585938 -7.953125 4.734375 -7.953125 Z M 4.734375 -8.90625 C 5.953125 -8.90625 6.925781 -8.492188 7.65625 -7.671875 C 8.394531 -6.847656 8.765625 -5.742188 8.765625 -4.359375 C 8.765625 -2.984375 8.394531 -1.882812 7.65625 -1.0625 C 6.925781 -0.238281 5.953125 0.171875 4.734375 0.171875 C 3.503906 0.171875 2.519531 -0.238281 1.78125 -1.0625 C 1.039062 -1.882812 0.671875 -2.984375 0.671875 -4.359375 C 0.671875 -5.742188 1.039062 -6.847656 1.78125 -7.671875 C 2.519531 -8.492188 3.503906 -8.90625 4.734375 -8.90625 Z M 4.734375 -8.90625 "/>
</symbol>
<symbol overflow="visible" id="glyph0-2">
<path style="stroke:none;" d="M 1.171875 -8.75 L 2.359375 -8.75 L 2.359375 -5.15625 L 6.65625 -5.15625 L 6.65625 -8.75 L 7.84375 -8.75 L 7.84375 0 L 6.65625 0 L 6.65625 -4.171875 L 2.359375 -4.171875 L 2.359375 0 L 1.171875 0 Z M 1.171875 -8.75 "/>
</symbol>
</g>
</defs>
<g id="surface42665">
<rect x="0" y="0" width="300" height="300" style="fill:rgb(100%,100%,100%);fill-opacity:1;stroke:none;"/>
<path style=" stroke:none;fill-rule:nonzero;fill:rgb(0%,0%,0%);fill-opacity:1;" d="M 175.441406 161.921875 L 156.613281 185.582031 L 165.847656 190.597656 Z M 175.441406 161.921875 "/>
<path style="fill:none;stroke-width:1.2;stroke-linecap:butt;stroke-linejoin:miter;stroke:rgb(0%,0%,0%);stroke-opacity:1;stroke-miterlimit:10;" d="M 175.441406 161.921875 L 191 187.3125 "/>
<path style="fill:none;stroke-width:1.2;stroke-linecap:butt;stroke-linejoin:miter;stroke:rgb(0%,0%,0%);stroke-opacity:1;stroke-miterlimit:10;" d="M 189.652344 135.75 L 175.441406 161.921875 "/>
<path style="fill:none;stroke-width:1.2;stroke-linecap:butt;stroke-linejoin:miter;stroke:rgb(0%,0%,0%);stroke-opacity:1;stroke-miterlimit:10;" d="M 145.671875 162.695312 L 175.441406 161.921875 "/>
<path style="fill:none;stroke-width:1.2;stroke-linecap:butt;stroke-linejoin:miter;stroke:rgb(0%,0%,0%);stroke-opacity:1;stroke-miterlimit:10;" d="M 191 187.3125 L 220.769531 186.535156 "/>
<path style="fill:none;stroke-width:1.2;stroke-linecap:butt;stroke-linejoin:miter;stroke:rgb(0%,0%,0%);stroke-opacity:1;stroke-miterlimit:10;" d="M 220.769531 186.535156 L 234.980469 160.367188 "/>
<path style="fill:none;stroke-width:1.2;stroke-linecap:butt;stroke-linejoin:miter;stroke:rgb(0%,0%,0%);stroke-opacity:1;stroke-miterlimit:10;" d="M 234.980469 160.367188 L 219.421875 134.972656 "/>
<path style=" stroke:none;fill-rule:nonzero;fill:rgb(0%,0%,0%);fill-opacity:1;" d="M 234.980469 160.367188 L 264.886719 164.84375 L 264.613281 154.335938 Z M 234.980469 160.367188 "/>
<path style=" stroke:none;fill-rule:nonzero;fill:rgb(0%,0%,0%);fill-opacity:1;" d="M 189.652344 135.75 L 219.5625 140.226562 L 219.285156 129.722656 Z M 189.652344 135.75 "/>
<path style="fill:none;stroke-width:1.2;stroke-linecap:butt;stroke-linejoin:miter;stroke:rgb(0%,0%,0%);stroke-opacity:1;stroke-miterlimit:10;" d="M 189.652344 135.75 L 174.097656 110.359375 "/>
<path style="fill:none;stroke-width:1.2;stroke-linecap:butt;stroke-linejoin:miter;stroke:rgb(0%,0%,0%);stroke-opacity:1;stroke-miterlimit:10;" d="M 174.097656 110.359375 L 144.328125 111.132812 "/>
<path style=" stroke:none;fill-rule:nonzero;fill:rgb(0%,0%,0%);fill-opacity:1;" d="M 130.117188 137.304688 L 148.945312 113.640625 L 139.710938 108.625 Z M 130.117188 137.304688 "/>
<path style="fill:none;stroke-width:1.2;stroke-linecap:butt;stroke-linejoin:miter;stroke:rgb(0%,0%,0%);stroke-opacity:1;stroke-miterlimit:10;" d="M 130.117188 137.304688 L 145.671875 162.695312 "/>
<path style="fill:none;stroke-width:1.2;stroke-linecap:butt;stroke-linejoin:miter;stroke:rgb(0%,0%,0%);stroke-opacity:1;stroke-miterlimit:10;" d="M 100.347656 138.078125 L 130.117188 137.304688 "/>
<path style="fill:none;stroke-width:1;stroke-linecap:butt;stroke-linejoin:miter;stroke:rgb(0%,0%,0%);stroke-opacity:1;stroke-miterlimit:10;" d="M 145.671875 162.695312 L 145.671875 162.695312 M 143.804688 165.042969 L 144.71875 165.542969 M 141.9375 167.390625 L 143.769531 168.386719 M 140.066406 169.738281 L 142.816406 171.230469 M 138.199219 172.085938 L 141.863281 174.078125 M 136.332031 174.433594 L 140.914062 176.921875 M 134.464844 176.78125 L 139.960938 179.765625 M 132.59375 179.128906 L 139.007812 182.613281 M 130.726562 181.476562 L 138.058594 185.457031 M 128.859375 183.824219 L 137.105469 188.300781 M 126.992188 186.171875 L 136.152344 191.144531 M 126.84375 186.359375 L 136.078125 191.375 "/>
<path style="fill:none;stroke-width:1.2;stroke-linecap:butt;stroke-linejoin:miter;stroke:rgb(0%,0%,0%);stroke-opacity:1;stroke-miterlimit:10;" d="M 131.460938 188.867188 L 101.691406 189.640625 "/>
<path style="fill:none;stroke-width:1.2;stroke-linecap:butt;stroke-linejoin:miter;stroke:rgb(0%,0%,0%);stroke-opacity:1;stroke-miterlimit:10;" d="M 101.691406 189.640625 L 86.132812 164.25 "/>
<path style="fill:none;stroke-width:1.2;stroke-linecap:butt;stroke-linejoin:miter;stroke:rgb(0%,0%,0%);stroke-opacity:1;stroke-miterlimit:10;" d="M 86.132812 164.25 L 100.347656 138.078125 "/>
<path style=" stroke:none;fill-rule:nonzero;fill:rgb(0%,0%,0%);fill-opacity:1;" d="M 86.132812 164.25 L 64.933594 185.8125 L 73.59375 191.765625 Z M 86.132812 164.25 "/>
<path style="fill:none;stroke-width:1.2;stroke-linecap:butt;stroke-linejoin:miter;stroke:rgb(0%,0%,0%);stroke-opacity:1;stroke-miterlimit:10;" d="M 56.851562 158.820312 L 86.132812 164.25 "/>
<path style=" stroke:none;fill-rule:nonzero;fill:rgb(0%,0%,0%);fill-opacity:1;" d="M 100.347656 138.078125 L 83.660156 112.859375 L 76.035156 120.09375 Z M 100.347656 138.078125 "/>
<path style="fill:none;stroke-width:1.2;stroke-linecap:butt;stroke-linejoin:miter;stroke:rgb(0%,0%,0%);stroke-opacity:1;stroke-miterlimit:10;" d="M 79.847656 116.476562 L 52.96875 129.292969 "/>
<path style="fill:none;stroke-width:1.2;stroke-linecap:butt;stroke-linejoin:miter;stroke:rgb(0%,0%,0%);stroke-opacity:1;stroke-miterlimit:10;" d="M 52.96875 129.292969 L 56.851562 158.820312 "/>
<path style="fill:none;stroke-width:1.2;stroke-linecap:butt;stroke-linejoin:miter;stroke:rgb(0%,0%,0%);stroke-opacity:1;stroke-miterlimit:10;" d="M 54.441406 156.277344 L 43.640625 166.527344 "/>
<path style="fill:none;stroke-width:1.2;stroke-linecap:butt;stroke-linejoin:miter;stroke:rgb(100%,0%,0%);stroke-opacity:1;stroke-miterlimit:10;" d="M 43.640625 166.527344 L 32.839844 176.773438 "/>
<path style="fill:none;stroke-width:1.2;stroke-linecap:butt;stroke-linejoin:miter;stroke:rgb(0%,0%,0%);stroke-opacity:1;stroke-miterlimit:10;" d="M 59.265625 161.359375 L 48.464844 171.609375 "/>
<path style="fill:none;stroke-width:1.2;stroke-linecap:butt;stroke-linejoin:miter;stroke:rgb(100%,0%,0%);stroke-opacity:1;stroke-miterlimit:10;" d="M 48.464844 171.609375 L 37.660156 181.855469 "/>
<path style=" stroke:none;fill-rule:nonzero;fill:rgb(100%,100%,100%);fill-opacity:1;" d="M 25.25 172.316406 L 35.25 172.316406 L 35.25 186.316406 L 25.25 186.316406 Z M 25.25 172.316406 "/>
<g style="fill:rgb(100%,0%,0%);fill-opacity:1;">
  <use xlink:href="#glyph0-1" x="25.25" y="183.455078"/>
</g>
<path style=" stroke:none;fill-rule:nonzero;fill:rgb(100%,100%,100%);fill-opacity:1;" d="M 255.75 152.589844 L 274.75 152.589844 L 274.75 166.589844 L 255.75 166.589844 Z M 255.75 152.589844 "/>
<g style="fill:rgb(100%,0%,0%);fill-opacity:1;">
  <use xlink:href="#glyph0-1" x="255.75" y="163.728516"/>
  <use xlink:href="#glyph0-2" x="265.195312" y="163.728516"/>
</g>
</g>
</svg>

<svg xmlns="http://www.w3.org/2000/svg" xmlns:xlink="http://www.w3.org/1999/xlink" width="300pt" height="300pt" viewBox="0 0 300 300"><defs><symbol overflow="visible"><path d="M.594 2.125V-8.47h6V2.126zm.672-.672h4.671V-7.78h-4.67zm0 0"/></symbol><symbol overflow="visible" id="a"><path d="M4.734-7.953c-.867 0-1.554.324-2.062.97-.5.635-.75 1.51-.75 2.624 0 1.094.25 1.965.75 2.61.508.637 1.195.953 2.062.953.852 0 1.532-.316 2.032-.953.507-.645.765-1.516.765-2.61 0-1.113-.257-1.988-.764-2.624-.5-.645-1.18-.97-2.032-.97zm0-.953c1.22 0 2.192.414 2.922 1.234.74.824 1.11 1.93 1.11 3.313 0 1.376-.37 2.477-1.11 3.298C6.926-.24 5.953.17 4.734.17c-1.23 0-2.214-.41-2.953-1.234C1.04-1.882.673-2.984.673-4.36c0-1.382.367-2.488 1.11-3.312.738-.82 1.722-1.234 2.952-1.234zm0 0"/></symbol><symbol overflow="visible" id="b"><path d="M1.172-8.75H2.36v3.594h4.296V-8.75h1.188V0H6.656v-4.172H2.36V0H1.17zm0 0"/></symbol></defs><g><path fill="#fff" d="M0 0h300v300H0z"/><path d="M175.44 161.922l-18.827 23.66 9.235 5.016zm0 0"/><path d="M175.44 161.922l15.56 25.39M189.652 135.75l-14.21 26.172M145.672 162.695l29.77-.773M191 187.313l29.77-.778M220.77 186.535l14.21-26.168M234.98 160.367l-15.558-25.394" stroke-width="1.2" stroke="#000" stroke-miterlimit="10" fill="none"/><path d="M234.98 160.367l29.907 4.477-.274-10.508zm0 0M189.652 135.75l29.91 4.477-.277-10.504zm0 0"/><path d="M189.652 135.75l-15.554-25.39M174.098 110.36l-29.77.773" stroke-width="1.2" stroke="#000" stroke-miterlimit="10" fill="none"/><path d="M130.117 137.305l18.828-23.664-9.234-5.015zm0 0"/><path d="M130.117 137.305l15.555 25.39M100.348 138.078l29.77-.773" stroke-width="1.2" stroke="#000" stroke-miterlimit="10" fill="none"/><path d="M145.672 162.695m-1.867 2.348l.914.5m-2.782 1.848l1.832.997m-3.704 1.35l2.75 1.493m-4.617.856l3.663 1.992m-5.53.356l4.58 2.488m-6.448-.14l5.496 2.984m-7.366-.637l6.414 3.483m-8.28-1.136l7.33 3.98m-9.2-1.633l8.247 4.477m-10.113-2.128l9.16 4.973m-9.308-4.786l9.234 5.015" stroke="#000" stroke-miterlimit="10" fill="none"/><path d="M131.46 188.867l-29.77.774M101.69 189.64l-15.557-25.39M86.133 164.25l14.215-26.172" stroke-width="1.2" stroke="#000" stroke-miterlimit="10" fill="none"/><path d="M86.133 164.25l-21.2 21.563 8.66 5.953zm0 0"/><path d="M56.852 158.82l29.28 5.43" stroke-width="1.2" stroke="#000" stroke-miterlimit="10" fill="none"/><path d="M100.348 138.078l-16.688-25.22-7.625 7.236zm0 0"/><path d="M79.848 116.477l-26.88 12.816M52.97 129.293l3.882 29.527M54.44 156.277l-10.8 10.25" stroke-width="1.2" stroke="#000" stroke-miterlimit="10" fill="none"/><path d="M43.64 166.527l-10.8 10.246" stroke-width="1.2" stroke="#f00" stroke-miterlimit="10" fill="none"/><path d="M59.266 161.36l-10.8 10.25" stroke-width="1.2" stroke="#000" stroke-miterlimit="10" fill="none"/><path d="M48.465 171.61L37.66 181.854" stroke-width="1.2" stroke="#f00" stroke-miterlimit="10" fill="none"/><path d="M25.25 172.316h10v14h-10zm0 0" fill="#fff"/><use xlink:href="#a" x="25.25" y="183.455" fill="#f00"/><path d="M255.75 152.59h19v14h-19zm0 0" fill="#fff"/><g fill="#f00"><use xlink:href="#a" x="255.75" y="163.729"/><use xlink:href="#b" x="265.195" y="163.729"/></g></g></svg>
